X: 18516
T: I Ha'e A Wife O' Ma Ain
R: slip jig
M: 9/8
K: Edorian
EFE ~G2A B3|EFE G2A BGE|EFE ~G2A Bcd|DED {c}d2B AFD:|
g>ag fgf e3|EFE ~G2A BGE|g>ag fgf e3|DED {c}d2B AFD|
g>ag fgf e3|EFE ~G2A BGE|g>ag fgf efg|DED DdB AFD||

